usr/share/icons/biglinux-icons-material/16/actions/format-align-vertical-center.svg

<svg xmlns="http://www.w3.org/2000/svg" viewBox="0 0 16 16"><path d="M7 1v3H5l3 3 3-3H9V1H7zm1 6H2v1h12V7H8zm0 1-3 3h2v3h2v-3h2L8 8z" style="fill:currentColor;fill-opacity:1;stroke:none;color:#dedede"/></svg>

<svg xmlns="http://www.w3.org/2000/svg" viewBox="0 0 16 16">
  <defs id="defs3051">
    <style type="text/css" id="current-color-scheme">
      .ColorScheme-Text {
        color:#dedede;
      }
      </style>
  </defs>
 <path style="fill:currentColor;fill-opacity:1;stroke:none" 
     d="M 7 1 L 7 4 L 5 4 L 8 7 L 11 4 L 9 4 L 9 1 L 7 1 z M 8 7 L 2 7 L 2 8 L 8 8 L 14 8 L 14 7 L 8 7 z M 8 8 L 5 11 L 7 11 L 7 14 L 9 14 L 9 11 L 11 11 L 8 8 z "
     class="ColorScheme-Text"
     />
</svg>
